_includes/icons/color-word.svg

<svg fill="#666" height="50" viewBox="0 0 48 48" width="50" xmlns="http://www.w3.org/2000/svg"><path d="m40 45h-32v-42h22l10 10z" fill="#1976d2"/><path d="m38.5 14h-9.5v-9.5z" fill="#e3f2fd"/><path d="m26.695313 30.226563 1.46875-8.023438h3.058593l-2.714843 12.796875h-3.199219l-1.714844-7.296875-1.679687 7.296875h-3.1875l-2.726563-12.796875h3.066406l1.46875 8.023438 1.757813-8.023438h2.617187z" fill="#fafafa"/></svg>

<svg xmlns="http://www.w3.org/2000/svg" viewBox="0 0 48 48" width="50" height="50" fill="#666"><path d="M 40 45 L 8 45 L 8 3 L 30 3 L 40 13 Z" fill="#1976d2"/><path d="M 38.5 14 L 29 14 L 29 4.5 Z" fill="#e3f2fd"/><path d="M 26.695313 30.226563 L 28.164063 22.203125 L 31.222656 22.203125 L 28.507813 35 L 25.308594 35 L 23.59375 27.703125 L 21.914063 35 L 18.726563 35 L 16 22.203125 L 19.066406 22.203125 L 20.535156 30.226563 L 22.292969 22.203125 L 24.910156 22.203125 Z" fill="#fafafa"/></svg>
